SVGs/shelf_x1.svg

<?xml version="1.0" standalone="no"?>
<!DOCTYPE svg PUBLIC "-//W3C//DTD SVG 1.1//EN"
  "http://www.w3.org/Graphics/SVG/1.1/DTD/svg11.dtd">
<svg width="466mm" height="134.99999999999997mm" viewBox="-233 -296.99999999999994 466 134.99999999999997" xmlns="http://www.w3.org/2000/svg" version="1.1">
	<title>svgOutput</title>
	<desc>made with tinkercad</desc>
<path d="M 220.09938049316406 -295.99999999999994 L 221.1739959716797 -295.9469909667968 L 222.33999633789062 -295.7739868164062 L 223.3780059814453 -295.51428222656244 L 223.48300170898438 -295.4880065917968 L 224.59300231933594 -295.0910034179687 L 224.9712371826172 -294.91198730468744 L 225.6580047607422 -294.5870056152343 L 226.66900634765625 -293.98098754882807 L 227.61500549316406 -293.2789916992187 L 228.48800659179688 -292.4880065917968 L 229.2790069580078 -291.61499023437494 L 229.37600708007812 -291.48428344726557 L 229.9810028076172 -290.6690063476562 L 230.58700561523438 -289.65798950195307 L 231.09100341796875 -288.5929870605468 L 231.48800659179688 -287.4830017089843 L 231.7740020751953 -286.33999633789057 L 231.94700622558594 -285.1740112304687 L 232 -284.09936523437494 L 232 -283.9979858398437 L 232 -192.79100036621088 L 232 -175.00300598144528 L 232 -174.90153503417966 L 231.94700622558594 -173.82600402832028 L 231.7740020751953 -172.66000366210935 L 231.48800659179688 -171.5169982910156 L 231.09100341796875 -170.40699768066403 L 230.58700561523438 -169.34199523925778 L 229.9810028076172 -168.33200073242185 L 229.37600708007812 -167.5158538818359 L 229.2790069580078 -167.3849945068359 L 228.48800659179688 -166.5119934082031 L 227.61500549316406 -165.72099304199216 L 226.66900634765625 -165.01899719238278 L 225.6580047607422 -164.4129943847656 L 224.59300231933594 -163.90899658203122 L 224.40008544921875 -163.8399963378906 L 223.48300170898438 -163.5119934082031 L 222.33999633789062 -163.22599792480466 L 221.1739959716797 -163.05299377441403 L 220.09938049316406 -162.99999999999997 L 219.9980010986328 -162.99999999999997 L 219.6230010986328 -162.99999999999997 L -219.9969940185547 -162.99999999999997 L -220.0984649658203 -162.99999999999997 L -221.1739959716797 -163.05299377441403 L -222.33999633789062 -163.22599792480466 L -223.3769989013672 -163.48547363281247 L -223.48300170898438 -163.5119934082031 L -224.40008544921875 -163.8399963378906 L -224.59300231933594 -163.90899658203122 L -225.6580047607422 -164.4129943847656 L -226.66799926757812 -165.01899719238278 L -227.61500549316406 -165.72099304199216 L -228.48800659179688 -166.5119934082031 L -229.2790069580078 -167.3849945068359 L -229.37600708007812 -167.5158538818359 L -229.9810028076172 -168.33200073242185 L -230.58700561523438 -169.34199523925778 L -231.09100341796875 -170.40699768066403 L -231.48800659179688 -171.5169982910156 L -231.7740020751953 -172.66000366210935 L -231.94700622558594 -173.82600402832028 L -232 -174.90153503417966 L -232 -175.00300598144528 L -232 -283.9979858398437 L -232 -284.09936523437494 L -231.94700622558594 -285.1740112304687 L -231.7740020751953 -286.33999633789057 L -231.48800659179688 -287.4830017089843 L -231.09100341796875 -288.5929870605468 L -230.58700561523438 -289.65798950195307 L -229.9810028076172 -290.6690063476562 L -229.37600708007812 -291.48428344726557 L -229.2790069580078 -291.61499023437494 L -228.48800659179688 -292.4880065917968 L -227.61500549316406 -293.2789916992187 L -226.66799926757812 -293.98098754882807 L -225.6580047607422 -294.5870056152343 L -224.9712371826172 -294.91198730468744 L -224.59300231933594 -295.0910034179687 L -223.48300170898438 -295.4880065917968 L -223.3769989013672 -295.51452636718744 L -222.33999633789062 -295.7739868164062 L -221.1739959716797 -295.9469909667968 L -220.0984649658203 -295.99999999999994 L -219.9969940185547 -295.99999999999994 L -219.6219940185547 -295.99999999999994 L 219.6230010986328 -295.99999999999994 L 219.9980010986328 -295.99999999999994 L 220.09938049316406 -295.99999999999994 M 221.3159942626953 -192.80000305175776 L 221.5 -192.79100036621088 L 221.6840057373047 -192.80000305175776 L 221.86599731445312 -192.82699584960932 L 222.0449981689453 -192.87100219726557 L 222.218994140625 -192.9329986572265 L 222.38499450683594 -193.01199340820307 L 222.54299926757812 -193.1069946289062 L 222.6909942626953 -193.21699523925776 L 222.8280029296875 -193.33999633789057 L 222.9510040283203 -193.47700500488276 L 223.06100463867188 -193.62499999999994 L 223.156005859375 -193.78300476074213 L 223.23199462890625 -193.9436645507812 L 223.23500061035156 -193.94999694824213 L 223.2969970703125 -194.12300109863276 L 223.34100341796875 -194.30200195312494 L 223.36900329589844 -194.48399353027338 L 223.37271118164062 -194.5599975585937 L 223.3780059814453 -194.66799926757807 L 223.36900329589844 -194.85200500488276 L 223.34100341796875 -195.0339965820312 L 223.2969970703125 -195.21299743652338 L 223.23500061035156 -195.386001586914 L 223.23199462890625 -195.392349243164 L 223.156005859375 -195.552993774414 L 223.06100463867188 -195.7109985351562 L 222.9510040283203 -195.85899353027338 L 222.8280029296875 -195.99600219726557 L 222.6909942626953 -196.11900329589838 L 222.54299926757812 -196.22900390624994 L 222.38499450683594 -196.32400512695307 L 222.218994140625 -196.40299987792963 L 222.0449981689453 -196.46499633789057 L 221.86599731445312 -196.50900268554682 L 221.6840057373047 -196.53599548339838 L 221.5 -196.54600524902338 L 221.3159942626953 -196.53599548339838 L 221.1840057373047 -196.5164184570312 L 221.13400268554688 -196.50900268554682 L 220.9550018310547 -196.46499633789057 L 220.78199768066406 -196.40299987792963 L 220.61500549316406 -196.32400512695307 L 220.45700073242188 -196.22900390624994 L 220.3090057373047 -196.11900329589838 L 220.1719970703125 -195.99600219726557 L 220.0489959716797 -195.85899353027338 L 219.93899536132812 -195.7109985351562 L 219.86264038085938 -195.583999633789 L 219.843994140625 -195.552993774414 L 219.76499938964844 -195.386001586914 L 219.7030029296875 -195.21299743652338 L 219.65899658203125 -195.0339965820312 L 219.6320037841797 -194.85200500488276 L 219.6230010986328 -194.66799926757807 L 219.62828063964844 -194.5599975585937 L 219.6320037841797 -194.48399353027338 L 219.65899658203125 -194.30200195312494 L 219.7030029296875 -194.12300109863276 L 219.76499938964844 -193.94999694824213 L 219.843994140625 -193.78300476074213 L 219.93899536132812 -193.62499999999994 L 220.00514221191406 -193.53599548339838 L 220.0489959716797 -193.47700500488276 L 220.1719970703125 -193.33999633789057 L 220.3090057373047 -193.21699523925776 L 220.45700073242188 -193.1069946289062 L 220.61500549316406 -193.01199340820307 L 220.78199768066406 -192.9329986572265 L 220.9550018310547 -192.87100219726557 L 221.13400268554688 -192.82699584960932 L 221.1840057373047 -192.81958007812494 L 221.3159942626953 -192.80000305175776 M 221.6840057373047 -285.7999877929687 L 221.86599731445312 -285.8269958496093 L 222.0449981689453 -285.87100219726557 L 222.218994140625 -285.93301391601557 L 222.38499450683594 -286.01199340820307 L 222.54299926757812 -286.1069946289062 L 222.6909942626953 -286.2170104980468 L 222.8280029296875 -286.33999633789057 L 222.9510040283203 -286.4769897460937 L 223.06100463867188 -286.62499999999994 L 223.1181182861328 -286.72000122070307 L 223.156005859375 -286.78298950195307 L 223.23500061035156 -286.9500122070312 L 223.2969970703125 -287.1229858398437 L 223.34100341796875 -287.30200195312494 L 223.36900329589844 -287.48400878906244 L 223.3780059814453 -287.66799926757807 L 223.36900329589844 -287.8519897460937 L 223.34100341796875 -288.0339965820312 L 223.2969970703125 -288.21301269531244 L 223.23500061035156 -288.38598632812494 L 223.156005859375 -288.55300903320307 L 223.06100463867188 -288.7109985351562 L 223.0186309814453 -288.7680053710937 L 222.9510040283203 -288.85900878906244 L 222.8280029296875 -288.99600219726557 L 222.6909942626953 -289.1189880371093 L 222.54299926757812 -289.22900390624994 L 222.38499450683594 -289.32400512695307 L 222.218994140625 -289.4030151367187 L 222.0449981689453 -289.46499633789057 L 221.86599731445312 -289.5090026855468 L 221.6840057373047 -289.53601074218744 L 221.5 -289.5459899902343 L 221.3159942626953 -289.53601074218744 L 221.1840057373047 -289.5164184570312 L 221.13400268554688 -289.5090026855468 L 220.9550018310547 -289.46499633789057 L 220.78199768066406 -289.4030151367187 L 220.61500549316406 -289.32400512695307 L 220.45700073242188 -289.22900390624994 L 220.3090057373047 -289.1189880371093 L 220.1719970703125 -288.99600219726557 L 220.0489959716797 -288.85900878906244 L 219.9813690185547 -288.7680053710937 L 219.93899536132812 -288.7109985351562 L 219.843994140625 -288.55300903320307 L 219.76499938964844 -288.38598632812494 L 219.7030029296875 -288.21301269531244 L 219.65899658203125 -288.0339965820312 L 219.6320037841797 -287.8519897460937 L 219.6230010986328 -287.66799926757807 L 219.6320037841797 -287.48400878906244 L 219.65899658203125 -287.30200195312494 L 219.7030029296875 -287.1229858398437 L 219.76499938964844 -286.9500122070312 L 219.843994140625 -286.78298950195307 L 219.8818817138672 -286.72000122070307 L 219.93899536132812 -286.62499999999994 L 220.0489959716797 -286.4769897460937 L 220.1719970703125 -286.33999633789057 L 220.3090057373047 -286.2170104980468 L 220.45700073242188 -286.1069946289062 L 220.61500549316406 -286.01199340820307 L 220.78199768066406 -285.93301391601557 L 220.9550018310547 -285.87100219726557 L 221.13400268554688 -285.8269958496093 L 221.1840057373047 -285.81958007812494 L 221.3159942626953 -285.7999877929687 L 221.5 -285.7909851074218 L 221.6840057373047 -285.7999877929687 M -221.3159942626953 -192.80000305175776 L -221.1840057373047 -192.81958007812494 L -221.13400268554688 -192.82699584960932 L -220.9550018310547 -192.87100219726557 L -220.781005859375 -192.9329986572265 L -220.61500549316406 -193.01199340820307 L -220.45700073242188 -193.1069946289062 L -220.3090057373047 -193.21699523925776 L -220.1719970703125 -193.33999633789057 L -220.0489959716797 -193.47700500488276 L -220.00514221191406 -193.53599548339838 L -219.93899536132812 -193.62499999999994 L -219.843994140625 -193.78300476074213 L -219.76499938964844 -193.94999694824213 L -219.7030029296875 -194.12300109863276 L -219.65899658203125 -194.30200195312494 L -219.63099670410156 -194.48399353027338 L -219.62728881835938 -194.5599975585937 L -219.6219940185547 -194.66799926757807 L -219.63099670410156 -194.85200500488276 L -219.65899658203125 -195.0339965820312 L -219.7030029296875 -195.21299743652338 L -219.76499938964844 -195.386001586914 L -219.843994140625 -195.552993774414 L -219.86264038085938 -195.583999633789 L -219.93899536132812 -195.7109985351562 L -220.0489959716797 -195.85899353027338 L -220.1719970703125 -195.99600219726557 L -220.3090057373047 -196.11900329589838 L -220.45700073242188 -196.22900390624994 L -220.61500549316406 -196.32400512695307 L -220.781005859375 -196.40299987792963 L -220.9550018310547 -196.46499633789057 L -221.13400268554688 -196.50900268554682 L -221.1840057373047 -196.5164184570312 L -221.3159942626953 -196.53599548339838 L -221.5 -196.54600524902338 L -221.6840057373047 -196.53599548339838 L -221.86599731445312 -196.50900268554682 L -222.0449981689453 -196.46499633789057 L -222.21800231933594 -196.40299987792963 L -222.38499450683594 -196.32400512695307 L -222.54299926757812 -196.22900390624994 L -222.6909942626953 -196.11900329589838 L -222.8280029296875 -195.99600219726557 L -222.9510040283203 -195.85899353027338 L -223.06100463867188 -195.7109985351562 L -223.156005859375 -195.552993774414 L -223.23199462890625 -195.392349243164 L -223.23500061035156 -195.386001586914 L -223.2969970703125 -195.21299743652338 L -223.34100341796875 -195.0339965820312 L -223.3679962158203 -194.85200500488276 L -223.3769989013672 -194.66799926757807 L -223.37171936035156 -194.5599975585937 L -223.3679962158203 -194.48399353027338 L -223.34100341796875 -194.30200195312494 L -223.2969970703125 -194.12300109863276 L -223.23500061035156 -193.94999694824213 L -223.23199462890625 -193.9436645507812 L -223.156005859375 -193.78300476074213 L -223.06100463867188 -193.62499999999994 L -222.9510040283203 -193.47700500488276 L -222.8280029296875 -193.33999633789057 L -222.6909942626953 -193.21699523925776 L -222.54299926757812 -193.1069946289062 L -222.38499450683594 -193.01199340820307 L -222.21800231933594 -192.9329986572265 L -222.0449981689453 -192.87100219726557 L -221.86599731445312 -192.82699584960932 L -221.6840057373047 -192.80000305175776 L -221.5 -192.79100036621088 L -221.3159942626953 -192.80000305175776 M -221.3159942626953 -285.7999877929687 L -221.1840057373047 -285.81958007812494 L -221.13400268554688 -285.8269958496093 L -220.9550018310547 -285.87100219726557 L -220.781005859375 -285.93301391601557 L -220.61500549316406 -286.01199340820307 L -220.45700073242188 -286.1069946289062 L -220.3090057373047 -286.2170104980468 L -220.1719970703125 -286.33999633789057 L -220.0489959716797 -286.4769897460937 L -219.93899536132812 -286.62499999999994 L -219.8818817138672 -286.72000122070307 L -219.843994140625 -286.78298950195307 L -219.76499938964844 -286.9500122070312 L -219.7030029296875 -287.1229858398437 L -219.65899658203125 -287.30200195312494 L -219.63099670410156 -287.48400878906244 L -219.6219940185547 -287.66799926757807 L -219.63099670410156 -287.8519897460937 L -219.65899658203125 -288.0339965820312 L -219.7030029296875 -288.21301269531244 L -219.76499938964844 -288.38598632812494 L -219.843994140625 -288.55300903320307 L -219.93899536132812 -288.7109985351562 L -219.9813690185547 -288.7680053710937 L -220.0489959716797 -288.85900878906244 L -220.1719970703125 -288.99600219726557 L -220.3090057373047 -289.1189880371093 L -220.45700073242188 -289.22900390624994 L -220.61500549316406 -289.32400512695307 L -220.781005859375 -289.4030151367187 L -220.9550018310547 -289.46499633789057 L -221.13400268554688 -289.5090026855468 L -221.1840057373047 -289.5164184570312 L -221.3159942626953 -289.53601074218744 L -221.5 -289.5459899902343 L -221.6840057373047 -289.53601074218744 L -221.86599731445312 -289.5090026855468 L -222.0449981689453 -289.46499633789057 L -222.21800231933594 -289.4030151367187 L -222.38499450683594 -289.32400512695307 L -222.54299926757812 -289.22900390624994 L -222.6909942626953 -289.1189880371093 L -222.8280029296875 -288.99600219726557 L -222.9510040283203 -288.85900878906244 L -223.0186309814453 -288.7680053710937 L -223.06100463867188 -288.7109985351562 L -223.156005859375 -288.55300903320307 L -223.23500061035156 -288.38598632812494 L -223.2969970703125 -288.21301269531244 L -223.34100341796875 -288.0339965820312 L -223.3679962158203 -287.8519897460937 L -223.3769989013672 -287.66799926757807 L -223.3679962158203 -287.48400878906244 L -223.34100341796875 -287.30200195312494 L -223.2969970703125 -287.1229858398437 L -223.23500061035156 -286.9500122070312 L -223.156005859375 -286.78298950195307 L -223.1181182861328 -286.72000122070307 L -223.06100463867188 -286.62499999999994 L -222.9510040283203 -286.4769897460937 L -222.8280029296875 -286.33999633789057 L -222.6909942626953 -286.2170104980468 L -222.54299926757812 -286.1069946289062 L -222.38499450683594 -286.01199340820307 L -222.21800231933594 -285.93301391601557 L -222.0449981689453 -285.87100219726557 L -221.86599731445312 -285.8269958496093 L -221.6840057373047 -285.7999877929687 L -221.5 -285.7909851074218 L -221.3159942626953 -285.7999877929687 M -219.9969940185547 -163.8399963378906 L -219.9969940185547 -175.00300598144528 L -223.3769989013672 -175.00300598144528 L -223.3769989013672 -163.8399963378906 L -219.9969940185547 -163.8399963378906 z" fill="none" stroke="rgb(255,0,0)" stroke-width="0.001mm" />
</svg>

<?xml version="1.0" encoding="UTF-8" standalone="no"?>
<svg
   width="466mm"
   height="134.99999999999997mm"
   viewBox="-233 -296.99999999999994 466 134.99999999999997"
   version="1.1"
   id="svg8"
   sodipodi:docname="shelf_x1.svg"
   inkscape:version="1.1.2 (0a00cf5339, 2022-02-04)"
   xmlns:inkscape="http://www.inkscape.org/namespaces/inkscape"
   xmlns:sodipodi="http://sodipodi.sourceforge.net/DTD/sodipodi-0.dtd"
   xmlns="http://www.w3.org/2000/svg"
   xmlns:svg="http://www.w3.org/2000/svg">
  <defs
     id="defs12" />
  <sodipodi:namedview
     id="namedview10"
     pagecolor="#ffffff"
     bordercolor="#666666"
     borderopacity="1.0"
     inkscape:pageshadow="2"
     inkscape:pageopacity="0.0"
     inkscape:pagecheckerboard="0"
     inkscape:document-units="mm"
     showgrid="false"
     inkscape:zoom="2.0258362"
     inkscape:cx="880.8708"
     inkscape:cy="254.95644"
     inkscape:window-width="3766"
     inkscape:window-height="2096"
     inkscape:window-x="0"
     inkscape:window-y="0"
     inkscape:window-maximized="1"
     inkscape:current-layer="svg8" />
  <title
     id="title2">svgOutput</title>
  <desc
     id="desc4">made with tinkercad</desc>
  <path
     d="m 220.09938,-296 1.07462,0.053 1.166,0.173 1.03801,0.25971 0.10499,0.0263 1.11,0.39701 0.37824,0.17901 0.68676,0.32498 1.01101,0.60602 0.946,0.702 0.873,0.79098 0.791,0.87302 0.097,0.13071 0.60499,0.81527 0.60601,1.01102 0.50399,1.065 0.39701,1.10999 0.28599,1.143 0.17301,1.16599 0.053,1.07464 v 0.10138 91.20699 17.78799 0.10147 l -0.053,1.07554 -0.17301,1.166 -0.28599,1.143 -0.39701,1.11 -0.50399,1.065 -0.60601,1.01 -0.60499,0.81615 -0.097,0.13086 -0.791,0.873 -0.873,0.791 -0.946,0.70199 -1.01101,0.60601 -1.065,0.50399 -0.19291,0.069 -0.91709,0.32801 -1.143,0.28599 -1.166,0.17301 -1.07462,0.053 h -0.10138 -0.375 -439.61999 -0.10147 l -1.07554,-0.053 -1.166,-0.17301 -1.037,-0.25947 -0.106,-0.0265 -0.91709,-0.32801 -0.19291,-0.069 -1.065,-0.50399 -1.01,-0.60601 -0.94701,-0.70199 -0.873,-0.791 -0.791,-0.873 -0.097,-0.13086 -0.60499,-0.81615 -0.60601,-1.01 -0.50399,-1.065 -0.39701,-1.11 -0.28599,-1.143 -0.17301,-1.166 -0.053,-1.07554 v -0.10147 -108.99498 -0.10138 l 0.053,-1.07464 0.17301,-1.16599 0.28599,-1.143 0.39701,-1.10999 0.50399,-1.065 0.60601,-1.01102 0.60499,-0.81527 0.097,-0.13071 0.791,-0.87302 0.873,-0.79098 0.94701,-0.702 1.01,-0.60602 0.68676,-0.32498 0.37824,-0.17901 1.11,-0.39701 0.106,-0.0265 1.037,-0.25946 1.166,-0.173 1.07554,-0.053 h 0.10147 0.375 439.24499 0.375 0.10138 m 1.21661,103.2 0.18401,0.009 0.18401,-0.009 0.18199,-0.027 0.179,-0.044 0.17399,-0.062 0.166,-0.079 0.15801,-0.095 0.14799,-0.11001 0.13701,-0.123 0.123,-0.13701 0.11,-0.14799 0.095,-0.158 0.076,-0.16066 0.003,-0.006 0.062,-0.173 0.044,-0.179 0.028,-0.18199 0.004,-0.076 0.005,-0.108 -0.009,-0.18401 -0.028,-0.18199 -0.044,-0.179 -0.062,-0.173 -0.003,-0.006 -0.076,-0.16064 -0.095,-0.15801 -0.11,-0.14799 -0.123,-0.13701 -0.13701,-0.123 -0.14799,-0.11 -0.15801,-0.095 -0.166,-0.079 -0.17399,-0.062 -0.179,-0.044 -0.18199,-0.027 -0.18401,-0.01 -0.18401,0.01 -0.13198,0.0196 -0.05,0.007 -0.179,0.044 -0.173,0.062 -0.16699,0.079 -0.15801,0.095 -0.14799,0.11 -0.13701,0.123 -0.123,0.13701 -0.11,0.14799 -0.0764,0.127 -0.0187,0.031 -0.079,0.16699 -0.062,0.173 -0.044,0.179 -0.027,0.18199 -0.009,0.18401 0.005,0.108 0.004,0.076 0.027,0.18199 0.044,0.179 0.062,0.173 0.079,0.167 0.095,0.158 0.0661,0.089 0.0439,0.059 0.123,0.13701 0.13701,0.123 0.14799,0.11001 0.15801,0.095 0.16699,0.079 0.173,0.062 0.179,0.044 0.05,0.007 0.13198,0.0196 m 0.36802,-92.99999 0.18199,-0.027 0.179,-0.044 0.17399,-0.062 0.166,-0.079 0.15801,-0.095 0.14799,-0.11002 0.13701,-0.12299 0.123,-0.13699 0.11,-0.14801 0.0571,-0.095 0.0379,-0.063 0.079,-0.16702 0.062,-0.17298 0.044,-0.17901 0.028,-0.18201 0.009,-0.18399 -0.009,-0.18399 -0.028,-0.18201 -0.044,-0.17901 -0.062,-0.17298 -0.079,-0.16702 -0.095,-0.15799 -0.0424,-0.057 -0.0676,-0.091 -0.123,-0.13699 -0.13701,-0.12299 -0.14799,-0.11001 -0.15801,-0.095 -0.166,-0.079 -0.17399,-0.062 -0.179,-0.044 -0.18199,-0.027 -0.18401,-0.01 -0.18401,0.01 -0.13198,0.0196 -0.05,0.007 -0.179,0.044 -0.173,0.062 -0.16699,0.079 -0.15801,0.095 -0.14799,0.11001 -0.13701,0.12299 -0.123,0.13699 -0.0676,0.091 -0.0424,0.057 -0.095,0.15799 -0.079,0.16702 -0.062,0.17298 -0.044,0.17901 -0.027,0.18201 -0.009,0.18399 0.009,0.18399 0.027,0.18201 0.044,0.17901 0.062,0.17298 0.079,0.16702 0.0379,0.063 0.0571,0.095 0.11,0.14801 0.123,0.13699 0.13701,0.12299 0.14799,0.11002 0.15801,0.095 0.16699,0.079 0.173,0.062 0.179,0.044 0.05,0.007 0.13198,0.0196 0.18401,0.009 0.18401,-0.009 m -443,92.99999 0.13198,-0.0196 0.05,-0.007 0.179,-0.044 0.17399,-0.062 0.166,-0.079 0.15801,-0.095 0.14799,-0.11001 0.13701,-0.123 0.123,-0.13701 0.0439,-0.059 0.0661,-0.089 0.095,-0.158 0.079,-0.167 0.062,-0.173 0.044,-0.179 0.028,-0.18199 0.004,-0.076 0.005,-0.108 -0.009,-0.18401 -0.028,-0.18199 -0.044,-0.179 -0.062,-0.173 -0.079,-0.16699 -0.0187,-0.031 -0.0764,-0.127 -0.11,-0.14799 -0.123,-0.13701 -0.13701,-0.123 -0.14799,-0.11 -0.15801,-0.095 -0.166,-0.079 -0.17399,-0.062 -0.179,-0.044 -0.05,-0.007 -0.13198,-0.0196 -0.18401,-0.01 -0.18401,0.01 -0.18199,0.027 -0.179,0.044 -0.173,0.062 -0.16699,0.079 -0.15801,0.095 -0.14799,0.11 -0.13701,0.123 -0.123,0.13701 -0.11,0.14799 -0.095,0.15801 -0.076,0.16064 -0.003,0.006 -0.062,0.173 -0.044,0.179 -0.027,0.18199 -0.009,0.18401 0.005,0.108 0.004,0.076 0.027,0.18199 0.044,0.179 0.062,0.173 0.003,0.006 0.076,0.16066 0.095,0.158 0.11,0.14799 0.123,0.13701 0.13701,0.123 0.14799,0.11001 0.15801,0.095 0.16699,0.079 0.173,0.062 0.179,0.044 0.18199,0.027 0.18401,0.009 0.18401,-0.009 m 0,-92.99999 0.13198,-0.0196 0.05,-0.007 0.179,-0.044 0.17399,-0.062 0.166,-0.079 0.15801,-0.095 0.14799,-0.11002 0.13701,-0.12299 0.123,-0.13699 0.11,-0.14801 0.0571,-0.095 0.0379,-0.063 0.079,-0.16702 0.062,-0.17298 0.044,-0.17901 0.028,-0.18201 0.009,-0.18399 -0.009,-0.18399 -0.028,-0.18201 -0.044,-0.17901 -0.062,-0.17298 -0.079,-0.16702 -0.095,-0.15799 -0.0424,-0.057 -0.0676,-0.091 -0.123,-0.13699 -0.13701,-0.12299 -0.14799,-0.11001 -0.15801,-0.095 -0.166,-0.079 -0.17399,-0.062 -0.179,-0.044 -0.05,-0.007 -0.13198,-0.0196 -0.18401,-0.01 -0.18401,0.01 -0.18199,0.027 -0.179,0.044 -0.173,0.062 -0.16699,0.079 -0.15801,0.095 -0.14799,0.11001 -0.13701,0.12299 -0.123,0.13699 -0.0676,0.091 -0.0424,0.057 -0.095,0.15799 -0.079,0.16702 -0.062,0.17298 -0.044,0.17901 -0.027,0.18201 -0.009,0.18399 0.009,0.18399 0.027,0.18201 0.044,0.17901 0.062,0.17298 0.079,0.16702 0.0379,0.063 0.0571,0.095 0.11,0.14801 0.123,0.13699 0.13701,0.12299 0.14799,0.11002 0.15801,0.095 0.16699,0.079 0.173,0.062 0.179,0.044 0.18199,0.027 0.18401,0.009 0.18401,-0.009"
     fill="none"
     stroke="#ff0000"
     stroke-width="0.01mm"
     id="path6"
     sodipodi:nodetypes="cccccccccccccccccccccccccccccccccccccccccccccccccccccccccccccccccccccccccccccccccccccccccccccccccccccccccccccccccccccccccccccccccccccccccccccccccccccccccccccccccccccccccccccccccccccccccccccccccccccccccccccccccccccccccccccccccccccccccccccccccccccccccccccccccccccccccccccccccccccccccccccccccccccccccccccccccccccccccccccccccccccccccccccccccccccccccccccccccccccccccccccccccccccccccccc" />
</svg>
